X:5038
T:Patrick Band
O:england
R:Slip jig
M:9/8
L:1/8
K:G
Bcd def g2d | cde efg a2c |\
Bcd Bcd gdB | cde ABc BAG :|
|:Bcd dcB e2c | Bcd dcB c2A | \
Bcd dcB efg | fga ABc BAG :|


